X: 70
T:Pleasures of the Town
% Nottingham Music Database
S:Kevin Briggs, via EF
M:4/4
L:1/4
K:A
P:A
c/2d/2|"A"ec/2B/2 AA|"E7"Bc/2B/2 "A"AE|"D"F/2E/2F/2G/2 "A"AB/2c/2|\
"Bm"dc "E7"cB|
"A"ec/2B/2 AA|"E7"Bc/2B/2 "A"AE|"D"F/2E/2F/2G/2 "E7"AB|"A"cA A:|
P:B
c/2d/2|"A"ef/2g/2 a/2g/2f/2e/2|"D"ff f/2a/2g/2f/2|"A"ec "F#m"cB/2A/2|\
"Bm"G/2A/2B/2c/2 "E7"B2|
"A"ef/2g/2 a/2g/2f/2e/2|"D"ff fe|"D"f/2g/2a/2f/2 "E7"g/2a/2b/2g/2|"A"aA A:|<end>
<start>
